X:2360
T:Quoifyn Leein Vooar 
C:Mrs Shimmin, Foxdale 
C:Traditional
O:Isle of Man
N:See KV137 The Old Country Farmer. George Moore, Balladoole.
Z:Kiaull Vannin 360 
L:1/4
M:3/4 
Q:70 
K:G 
D/|G/G/ G A|B B c|d/B/ c (B/A/)|G2 B/c/|d d (g/f/)|e d (B/c/)|d d e/c/|A2 B/c/| 
d/d/ d (g/f/)|e c (A/B/)|c (c/d/) (e/c/)|A2 B/B/|G G A|B c d/d/|(e/c/) d (B/A/)|G2 z/2|| 

